X: 910
T: Joy Be With You.
B:O'Neill's 910
N:"collected by J. O'Neill."
Z:Transcribed by Tom Keays (htkeays@mailbox.syr.edu)
Z:abc 1.6
M:6/8
R:Jig
L:1/8
K:D
f2B ABd | f2B ABd | f2a e2f | dBA ABd |
f2B ABd | fdB ABd | f2a e2f | dBA ABd :|
|| faa eaa | fdB ABd | faa eff | dBA ABd |
faa eaa | faa eaa | fga bge | fdB ABd :|


